X:1
T:Down and Out
M:4/4
L:1/8
K:D
 A,3/2 A,/2| F3/2 ^E/2 F3/2 ^E/2 F3/2 ^E/2 F3/2- ^E/2| F3/2 F/2 ^E3/2 F/2 G3/2 G/2 F2|\
 E2- B,2 E2 E2| E B,2 E3 E3/2 ^D/2| E3/2 ^D/2 E3/2 ^D/2 E2 E3/2 ^D/2|\
 E3/2 E/2 ^D3/2 E/2 F3/2 F/2 E2| D2 B,2 A,2 B,2| D B,2 D3 z A,| F2 F2 F3/2 ^E/2 F3/2 ^E/2|\
 F F2 F G3/2 G/2 F3/2 F/2| E3/2 ^D/2 E3/2 ^D/2 E2 E3/2 ^D/2| E3/2 ^D/2 E B,2 B, B,3/2 B,/2|\
 D4 E3/2 E/2 E3/2 E/2| F F2 G3 D3/2 E/2| FD z2 F2 F2| D2 F2 CB, z2|\
 DB, z2 F2 F2| D2 z4||
